X: 1
T:BWV 512
C:Johann Sebastian Bach
R:Chorale
Z:Transcribed by Frank Nordberg - http://www.musicaviva.com

V:2 bass
m: Tn = (3o//n//o//n/
M:C
L:1/8
Q:1/4=72

K:Em
V:1
B|G2(AB/c/)B3A|GF FG/A/ GF HE2|

V:2
E,,|E,^D,E,F, G,F,G,A,|B,A,B,B,, E,B,,G,,B,,|

V:1
cBB2 edd2|Fc BA A2G B|G2 (AB/c/) B3A|

V:2
E,,E,2D, C,C2B,|A,2G,2 D,2G,,E,,|E,^D,E,F, G,F,G,A,|

V:1
GF FG/A/ GFHE2|cBB2 edd2|Fc BA A2G||

V:2
B,A,B,B,, E,B,,G,,B,,|E,,E,2D, C,C2B,|A,2G,2 D,2G,,||

V:1
B|A2(BA/G/) A2Bc|dc cB cB HA c|F2(e^d) (e/f/g) cB|

V:2
G,|F,D,G,G,, D,E,D,C,|B,,2E,2 HA,,3A,|B,A,G,F, G,F,E,D,|

V:1
Aa fe ^d^c HB e|(dc) (BA) B^D E A|(G2TFE) HE3|]

V:2
C,B,,A,,2 HB,,3G,|A,2F,2 G,B,CA,|B,A,B,B,, HE,3|]

